img/ui/icons/Download.svg

<svg width="25" height="24" viewBox="0 0 25 24" fill="none" xmlns="http://www.w3.org/2000/svg">
<path d="M20.7998 15V18C20.7998 19.1046 19.9044 20 18.7998 20H6.7998C5.69524 20 4.7998 19.1046 4.7998 18L4.7998 15M8.7998 11L12.7998 15M12.7998 15L16.7998 11M12.7998 15V3" stroke="currentColor" stroke-width="2" stroke-linecap="round" stroke-linejoin="round"/>
</svg>

<svg width="25" height="24" fill="none" xmlns="http://www.w3.org/2000/svg"><path d="M20.8 15v3a2 2 0 0 1-2 2h-12a2 2 0 0 1-2-2v-3m4-4 4 4m0 0 4-4m-4 4V3" stroke="currentColor" stroke-width="2" stroke-linecap="round" stroke-linejoin="round"/></svg>
